web/public/assets/active-bundles.svg

<svg fill="none" height="44" viewBox="0 0 44 44" width="44" xmlns="http://www.w3.org/2000/svg"><rect fill="#f1f1f1" height="44" rx="22" width="44"/><path d="m33.4627 23.3996-2.3861-4.1644c-.0815-.1423-.2081-.2449-.3528-.2983-.0006-.0003-.001-.0006-.0016-.0008l-8.4156-3.0842c-.1492-.0546-.3128-.0551-.4623-.0013l-8.563 3.0842c-.0003.0001-.0004.0003-.0006.0004-.1466.053-.275.1563-.3574.2999l-2.3861 4.1645c-.098.1712-.1165.3765-.0507.5624.0658.1858.2093.3338.3931.4052l1.9542.7585v5.1764c0 .2854.179.5401.4475.6368l8.4979 3.0607c.0866.0404.1829.0635.2848.0635.0015 0 .003-.0002.0045-.0002.0017 0 .0034.0002.0051.0002.0777 0 .1553-.0133.2294-.04l8.563-3.0842c.2685-.0967.4475-.3514.4475-.6368v-5.2336l1.8068-.7013c.1838-.0714.3274-.2194.3931-.4052.0659-.1859.0473-.3912-.0507-.5624zm-11.391-6.1919 6.4538 2.3652-6.4633 2.3776-6.5594-2.3769zm-8.2566 3.1943 7.2567 2.6296-1.82 3.1333-7.1487-2.775zm.3724 5.2493 5.1139 1.9851c.0801.031.1629.0459.2447.0459.2353 0 .4613-.1231.5855-.337l1.2555-2.1613v7.2355l-7.1996-2.593zm15.7722 4.1752-7.2188 2.6v-7.1257l1.1199 2.0314c.1637.2968.5218.4268.8377.3042l5.2612-2.0424zm-5.1992-3.6664-1.7233-3.1257 7.1491-2.63 1.7105 2.9855z" fill="#1a1a1a"/><rect fill="#2667ff" height="9" rx="4.5" width="9" x="17.4997" y="10.4369"/><rect height="9" rx="4.5" stroke="#2667ff" width="9" x="17.4997" y="10.4369"/><path d="m21.3086 16.7519c-.1624-.0055-.3165-.0736-.43-.19l-1-1c-.0593-.0565-.1061-.1249-.1371-.2007-.031-.0759-.0456-.1574-.0429-.2393 0-.1565.0622-.3066.1728-.4172.1107-.1107.2608-.1728.4172-.1728.1546.0058.3011.0702.41.18l.6.59 2-2c.1059-.1083.2488-.1726.4-.18.1613.0018.3156.0663.43.18.1106.1138.1725.2663.1725.425s-.0619.3111-.1725.425l-2.43 2.41c-.0998.1122-.24.1805-.39.19z" fill="#fff"/></svg>

<svg width="44" height="44" viewBox="0 0 44 44" fill="none" xmlns="http://www.w3.org/2000/svg">
<rect width="44" height="44" rx="22" fill="#F1F1F1"/>
<path d="M33.4627 23.3996L31.0766 19.2352C30.9951 19.0929 30.8685 18.9903 30.7238 18.9369C30.7232 18.9366 30.7228 18.9363 30.7222 18.9361L22.3066 15.8519C22.1574 15.7973 21.9938 15.7968 21.8443 15.8506L13.2813 18.9348C13.281 18.9349 13.2809 18.9351 13.2807 18.9352C13.1341 18.9882 13.0057 19.0915 12.9233 19.2351L10.5372 23.3996C10.4392 23.5708 10.4207 23.7761 10.4865 23.962C10.5523 24.1478 10.6958 24.2958 10.8796 24.3672L12.8338 25.1257V30.3021C12.8338 30.5875 13.0128 30.8422 13.2813 30.9389L21.7792 33.9996C21.8658 34.04 21.9621 34.0631 22.064 34.0631C22.0655 34.0631 22.067 34.0629 22.0685 34.0629C22.0702 34.0629 22.0719 34.0631 22.0736 34.0631C22.1513 34.0631 22.2289 34.0498 22.303 34.0231L30.866 30.9389C31.1345 30.8422 31.3135 30.5875 31.3135 30.3021V25.0685L33.1203 24.3672C33.3041 24.2958 33.4477 24.1478 33.5134 23.962C33.5793 23.7761 33.5607 23.5708 33.4627 23.3996ZM22.0717 17.2077L28.5255 19.5729L22.0622 21.9505L15.5028 19.5736L22.0717 17.2077ZM13.8151 20.402L21.0718 23.0316L19.2518 26.1649L12.1031 23.3899L13.8151 20.402ZM14.1875 25.6513L19.3014 27.6364C19.3815 27.6674 19.4643 27.6823 19.5461 27.6823C19.7814 27.6823 20.0074 27.5592 20.1316 27.3453L21.3871 25.184V32.4195L14.1875 29.8265V25.6513ZM29.9597 29.8265L22.7409 32.4265V25.3008L23.8608 27.3322C24.0245 27.629 24.3826 27.759 24.6985 27.6364L29.9597 25.594V29.8265ZM24.7605 26.1601L23.0372 23.0344L30.1863 20.4044L31.8968 23.3899L24.7605 26.1601Z" fill="#1A1A1A"/>
<rect x="17.4997" y="10.4369" width="9" height="9" rx="4.5" fill="#2667FF"/>
<rect x="17.4997" y="10.4369" width="9" height="9" rx="4.5" stroke="#2667FF"/>
<path d="M21.3086 16.7519C21.1462 16.7464 20.9921 16.6783 20.8786 16.5619L19.8786 15.5619C19.8193 15.5054 19.7725 15.437 19.7415 15.3612C19.7105 15.2853 19.6959 15.2038 19.6986 15.1219C19.6986 14.9654 19.7608 14.8153 19.8714 14.7047C19.9821 14.594 20.1322 14.5319 20.2886 14.5319C20.4432 14.5377 20.5897 14.6021 20.6986 14.7119L21.2986 15.3019L23.2986 13.3019C23.4045 13.1936 23.5474 13.1293 23.6986 13.1219C23.8599 13.1237 24.0142 13.1882 24.1286 13.3019C24.2392 13.4157 24.3011 13.5682 24.3011 13.7269C24.3011 13.8856 24.2392 14.038 24.1286 14.1519L21.6986 16.5619C21.5988 16.6741 21.4586 16.7424 21.3086 16.7519Z" fill="white"/>
</svg>
